images/icons/gift.svg

<svg xmlns="http://www.w3.org/2000/svg" viewBox="0 0 19 19"><path d="M18.5 4h-3a2.5 2.5 0 00-2-4 4.55 4.55 0 00-3.13 1.76A7.93 7.93 0 009.5 3a7.93 7.93 0 00-.87-1.23A4.55 4.55 0 005.5 0a2.5 2.5 0 00-2 4h-3a.5.5 0 00-.5.5v3a.5.5 0 00.5.5H1v9.5A1.5 1.5 0 002.5 19h14a1.5 1.5 0 001.5-1.5V8h.5a.5.5 0 00.5-.5v-3a.5.5 0 00-.5-.5zm-7.37-1.59A3.47 3.47 0 0113.5 1a1.5 1.5 0 010 3h-3.38a5.72 5.72 0 011.01-1.59zM11 18H8V5h3zM4 2.5A1.5 1.5 0 015.5 1a3.47 3.47 0 012.37 1.41A6 6 0 018.88 4H5.5A1.5 1.5 0 014 2.5zM1 5h6v2H1zm1 12.5V8h5v10H2.5a.5.5 0 01-.5-.5zm15 0a.5.5 0 01-.5.5H12V8h5zM18 7h-6V5h6z" data-name="Layer 1"/></svg>

<svg xmlns="http://www.w3.org/2000/svg" viewBox="0 0 19 19"><g id="Laag_2" data-name="Laag 2"><g id="Layer_1" data-name="Layer 1"><path fill="#ffffff" d="M18.5,4h-3a2.5,2.5,0,0,0-2-4,4.55,4.55,0,0,0-3.13,1.76A7.93,7.93,0,0,0,9.5,3a7.93,7.93,0,0,0-.87-1.23A4.55,4.55,0,0,0,5.5,0a2.5,2.5,0,0,0-2,4H.5a.5.5,0,0,0-.5.5v3A.5.5,0,0,0,.5,8H1v9.5A1.5,1.5,0,0,0,2.5,19h14A1.5,1.5,0,0,0,18,17.5V8h.5a.5.5,0,0,0,.5-.5v-3A.5.5,0,0,0,18.5,4ZM11.13,2.41A3.47,3.47,0,0,1,13.5,1a1.5,1.5,0,0,1,0,3H10.12A5.72,5.72,0,0,1,11.13,2.41ZM11,18H8V5h3ZM4,2.5A1.5,1.5,0,0,1,5.5,1,3.47,3.47,0,0,1,7.87,2.41,6,6,0,0,1,8.88,4H5.5A1.5,1.5,0,0,1,4,2.5ZM1,5H7V7H1ZM2,17.5V8H7V18H2.5A.5.5,0,0,1,2,17.5Zm15,0a.5.5,0,0,1-.5.5H12V8h5ZM18,7H12V5h6Z"/></g></g></svg>
